X:1
T:Title
%%score { ( 1 3 5 ) | ( 2 4 ) }
L:1/8
Q:1/4=100
M:4/4
K:Ab
V:1 treble nm="Grand Piano"
V:3 treble 
V:5 treble 
V:2 bass 
V:4 bass 
V:1
 [CE][CF][CF][CE] [CE]2 [CA]2 | AGGB B4 | FGGF F2 G2 | [CF][CE][CE][CA] [Ec]4 | %4
w: Chas.~H.~Gabriel * * * * *||||
 [Ec][CE][Fd][Ec] [=Dc]2 [DB]2 | BEcB B2 z2 | [A,DF][A,FA][A,EG][A,DF] [CE][CA][Ee][Fd] | %7
w: |||
 [Ec]2 [DB]2 [CA]4 | c-[Ec-][Ec-][Ec-] cecA | F4 F2 z2 | d4 z4 | c6 z2 | e6 z2 | F4 F2 z2 | %14
w: |||||||
 ccEc BBEB | [CA]2 [DA]2 [CA]4 |] %16
w: ||
V:2
 [A,,A,][A,,A,][A,,A,][A,,A,] [A,,A,]2 [A,,A,]2 | [E,B,D][E,B,D][E,B,D][E,G,D] [E,G,D]4 | %2
 [E,G,D][E,B,D][E,B,D][E,B,D] [E,B,D]2 [E,B,D]2 | [A,,A,][A,,A,][A,,A,][A,,A,] [A,,A,]4 | %4
 [A,,A,][A,,A,][A,,A,][A,,A,] [B,,A,]2 [B,,A,]2 | [E,G,D][E,G,D][E,G,E][E,G,D] z2 A2 | %6
 D,D,D,D, [A,,A,][A,,A,][C,A,][D,A,] | [E,A,]2 [E,G,]2 [A,,A,]4 | %8
 [A,,A,][A,,A,][C,A,][E,A,] A,CA,-[C,A,] | [D,A,D][D,A,][F,A,]A, [D,A,]2 [D,A,]2 | %10
 [E,G,E][E,G,][E,B,][E,A,E] [E,E]-[E,_G,E] .[E,=G,E]2 | [A,,A,][A,,A,][C,A,][E,A,] [A,,A,]2 z2 | %12
 [A,,CE]A,,C,E, z A, [C,A,]2 | [D,A,D][D,A,][F,A,]A, [D,A,]2 [D,A,]2 | %14
 [E,A,E][E,A,E][E,A,C][E,A,E] [E,G,D][E,G,D][E,G,D][E,G,D] | [A,,A,]2 [A,,F,]2 [A,,E,]4 |] %16
V:3
 x8 | x8 | x8 | x8 | x8 | z4 C4 | x8 | x8 | .E2 z2 E2 E2 | z DDD d2- [Fd]2 | z EEc B=ABE | %11
 EEEE E2 z2 | z [CE][CE][CE] E-[Ec][EA]E | z DDD d2- [Fd]2 | x8 | x8 |] %16
V:4
 x8 | x8 | x8 | x8 | x8 | z4 [A,,A,]4 | x8 | x8 | z4 A,,2 .A,,2 | x8 | z4 .G,2 z2 | x8 | %12
 z4 A,,2 z2 | x8 | x8 | x8 |] %16
V:5
 x8 | x8 | x8 | x8 | x8 | x8 | x8 | x8 | x8 | x8 | x8 | x8 | z4 .C2 z2 | x8 | x8 | x8 |] %16

